X:1
%
T:Miss Daly’s Jig
M:C|
L:1/8
R:Clog dance tune
S:Ryan’s Mammoth Collection (1883)
Z:AK/Fiddler’s Companion
K:Amin
(e>.d) | (c<A) zc (B<E)zB | (A>.B)(c>.d) (e<a) (e>.d) | (c<A)zc (B<E)ze | (d>.c)(B>.c) A2 (e>.d) |
(c<A) zc (B<E)zB | (A>.B)c>d (e<a) e>d | (c<A)zc (B<E)ze | d>cB>c A2z ||
G | (G>.G)(A>.B) (c<e)zc | (d>.d)(c>.d) (e<c)zA | (G>.G)(A>.B) (c<e)ze | (d>.c)(B>.d) c2 zG |
G>GA>B (c<e)zc | d>dc>d (e<c) zA | G>GA>B (c<e)ze | d>cB>d c2 z ||
K:F
c |: (c>.a)(g>.f) (fc)zc | (c>.a)(g>.f) (fc)zc | c>cd>e {g}f>ef>g | a>c'b>a (gd)zd |
d>ba>g (gd)zd| d>ba>g (gd)zd | c>=Bc>d e>fg>a |1 f>ag>f e>dc>=B :|2 f2a2f2 ||

